static/files/dsdtree/Azure Machine Learning.svg

<?xml version="1.0" encoding="UTF-8"?>
<!-- Created with Inkscape (http://www.inkscape.org/) -->
<svg width="100" height="100" version="1.1" viewBox="0 0 26.458 26.458" xmlns="http://www.w3.org/2000/svg" xmlns:cc="http://creativecommons.org/ns#" xmlns:dc="http://purl.org/dc/elements/1.1/" xmlns:rdf="http://www.w3.org/1999/02/22-rdf-syntax-ns#" xmlns:v="http://schemas.microsoft.com/visio/2003/SVGExtensions/">
 <metadata>
  <rdf:RDF>
   <cc:Work rdf:about="">
    <dc:format>image/svg+xml</dc:format>
    <dc:type rdf:resource="http://purl.org/dc/dcmitype/StillImage"/>
    <dc:title/>
   </cc:Work>
  </rdf:RDF>
 </metadata>
 <g transform="translate(0 -270.54)">
  <g transform="matrix(.82015 0 0 .82015 2.7649 273.11)" fill="#2165b6" v:groupContext="foregroundPage" v:index="1" v:mID="0">
   <title>Page-1</title>
   <v:pageProperties v:drawingScale="1" v:drawingUnits="19" v:pageScale="1" v:shadowOffsetX="2.83465" v:shadowOffsetY="-2.83465" v:shadowType="1"/>
   <g transform="translate(.75 -.75)" fill="#2165b6" v:groupContext="shape" v:mID="1608">
    <title>Sheet.1608</title>
    <path class="st1" d="m15.08 21.08a0.75503 0.75503-180 1 0-1.51 0 0.75503 0.75503-180 1 0 1.51 0zm-2.67-1.19c0.85 0 1.54-0.69 1.54-1.54 0-0.24-0.06-0.47-0.16-0.67h3.59l3.14 5.45h-17.03l3.15-5.45h4.39c-0.1 0.2-0.16 0.43-0.16 0.67 0 0.85 0.69 1.54 1.54 1.54zm11.25 3.47-7.63-13.21v-5.35h0.14c0.91 0 1.65-0.74 1.65-1.65s-0.74-1.65-1.65-1.65h-8.32c-0.92 0-1.65 0.74-1.65 1.65s0.73 1.65 1.65 1.65h0.13v5.35l-7.62 13.21c-0.84 1.45-0.16 2.64 1.52 2.64h20.26c1.67 0 2.36-1.19 1.52-2.64z" fill="#2165b6"/>
   </g>
  </g>
 </g>
</svg>

<?xml version="1.0" encoding="UTF-8" standalone="no"?>
<!DOCTYPE svg PUBLIC "-//W3C//DTD SVG 1.1//EN" "http://www.w3.org/Graphics/SVG/1.1/DTD/svg11.dtd">
<!-- Generated by Microsoft Visio, SVG Export Machine Learning.svg Page-1 -->
<svg xmlns="http://www.w3.org/2000/svg" xmlns:xlink="http://www.w3.org/1999/xlink" xmlns:ev="http://www.w3.org/2001/xml-events"
		xmlns:v="http://schemas.microsoft.com/visio/2003/SVGExtensions/" width="0.35439in" height="0.361083in"
		viewBox="0 0 25.5161 25.998" xml:space="preserve" color-interpolation-filters="sRGB" class="st2">
	<v:documentProperties v:langID="1033" v:viewMarkup="false">
		<v:userDefs>
			<v:ud v:nameU="visTLShowProps" v:prompt="" v:val="VT0(0):26"/>
		</v:userDefs>
	</v:documentProperties>

	<style type="text/css">
	<![CDATA[
		.st1 {fill:#0078d7;stroke:none;stroke-linecap:butt;stroke-width:0.75}
		.st2 {fill:none;fill-rule:evenodd;font-size:12px;overflow:visible;stroke-linecap:square;stroke-miterlimit:3}
	]]>
	</style>

	<g v:mID="0" v:index="1" v:groupContext="foregroundPage">
		<title>Page-1</title>
		<v:pageProperties v:drawingScale="1" v:pageScale="1" v:drawingUnits="19" v:shadowOffsetX="2.83465"
				v:shadowOffsetY="-2.83465" v:shadowType="1"/>
		<g id="shape1608-1" v:mID="1608" v:groupContext="shape" transform="translate(0.75,-0.75)">
			<title>Sheet.1608</title>
			<path d="M15.08 21.08 a0.755027 0.755027 -180 1 0 -1.51005 3.55271E-15 a0.755027 0.755027 -180 1 0 1.51005 -3.55271E-15
						 ZM12.41 19.89 C13.26 19.89 13.95 19.2 13.95 18.35 C13.95 18.11 13.89 17.88 13.79 17.68 L17.38 17.68 L20.52
						 23.13 L3.49 23.13 L6.64 17.68 L11.03 17.68 C10.93 17.88 10.87 18.11 10.87 18.35 C10.87 19.2 11.56 19.89
						 12.41 19.89 ZM23.66 23.36 L16.03 10.15 L16.03 4.8 L16.17 4.8 C17.08 4.8 17.82 4.06 17.82 3.15 C17.82 2.24
						 17.08 1.5 16.17 1.5 L7.85 1.5 C6.93 1.5 6.2 2.24 6.2 3.15 C6.2 4.06 6.93 4.8 7.85 4.8 L7.98 4.8 L7.98 10.15
						 L0.36 23.36 C-0.48 24.81 0.2 26 1.88 26 L22.14 26 C23.81 26 24.5 24.81 23.66 23.36 Z" class="st1"/>
		</g>
	</g>
</svg>
